lib/brands/icons/stripe.svg

<svg xmlns="http://www.w3.org/2000/svg" fill="none" aria-hidden="true" viewBox="0 0 48 48"><g id="stripe-Icon"><path id="vector" fill="url(#paint0_linear_94_20591)" d="M4.30792 9.55211C3 12.1191 3 15.4794 3 22.2V25.8C3 32.5206 3 35.8809 4.30792 38.4479C5.4584 40.7058 7.29417 42.5416 9.55211 43.6921C12.1191 45 15.4794 45 22.2 45H25.8C32.5206 45 35.8809 45 38.4479 43.6921C40.7058 42.5416 42.5416 40.7058 43.6921 38.4479C45 35.8809 45 32.5206 45 25.8V22.2C45 15.4794 45 12.1191 43.6921 9.55211C42.5416 7.29417 40.7058 5.4584 38.4479 4.30792C35.8809 3 32.5206 3 25.8 3H22.2C15.4794 3 12.1191 3 9.55211 4.30792C7.29417 5.4584 5.4584 7.29417 4.30792 9.55211Z"/><path id="vector_2" fill="url(#paint1_linear_94_20591)" d="M3.39783 12.4193C3 14.6802 3 17.6802 3 22.1999V25.7999C3 32.5206 3 35.8809 4.30792 38.4478C5.4584 40.7058 7.29417 42.5415 9.55211 43.692C12.1191 44.9999 15.4794 44.9999 22.2 44.9999H25.8C32.5206 44.9999 35.8809 44.9999 38.4479 43.692C40.7058 42.5415 42.5416 40.7058 43.6921 38.4478C45 35.8809 45 32.5206 45 25.7999V22.1999C45 15.4793 45 12.119 43.6921 9.55205C42.5816 7.37266 40.8327 5.58659 38.682 4.43042L3.39783 12.4193Z"/><path id="vector_3" fill="url(#paint2_linear_94_20591)" d="M44.5655 35.781C44.3726 36.7946 44.0942 37.6587 43.6921 38.4478C42.5416 40.7057 40.7059 42.5415 38.4479 43.692C35.9578 44.9608 32.7211 44.9987 26.3944 44.9999H24.0879V40.2551L44.5655 35.781Z"/><path id="vector_4" fill="url(#paint3_linear_94_20591)" d="M25.8 3H22.2C20.8925 3 19.7122 3 18.6401 3.00963V8.95578L38.6781 4.42838C38.6018 4.38743 38.5251 4.34728 38.4479 4.30792C37.0228 3.58182 35.3532 3.25882 33 3.11514C31.1143 3 28.7896 3 25.8 3Z"/><path id="vector_5" fill="url(#paint4_linear_94_20591)" d="M44.9998 26.06C44.9997 30.5684 44.9917 33.5402 44.5653 35.781L37.4434 37.3371V26.7238L44.9998 24.9664V26.06Z"/><path id="s" fill="white" fill-rule="evenodd" d="M22.4111 20.0668C22.4111 19.1028 23.1993 18.7321 24.5047 18.7321C26.3766 18.7321 28.7411 19.3006 30.613 20.314V14.5052C28.5687 13.6895 26.549 13.3682 24.5047 13.3682C19.5048 13.3682 16.1797 15.9883 16.1797 20.3635C16.1797 27.1857 25.5392 26.0981 25.5392 29.0396C25.5392 30.1767 24.554 30.5474 23.1747 30.5474C21.1304 30.5474 18.5196 29.707 16.4506 28.57V34.4529C18.7412 35.4417 21.0565 35.8619 23.1747 35.8619C28.2977 35.8619 31.8199 33.3159 31.8199 28.8913C31.7952 21.5252 22.4111 22.8353 22.4111 20.0668Z" clip-rule="evenodd"/></g><defs><linearGradient id="paint0_linear_94_20591" x1="3" x2="16.795" y1="3" y2="12.7531" gradientUnits="userSpaceOnUse"><stop stop-color="#392993"/><stop offset="1" stop-color="#4B47B9"/></linearGradient><linearGradient id="paint1_linear_94_20591" x1="4.58159" x2="35.0349" y1="12.8616" y2="37.9814" gradientUnits="userSpaceOnUse"><stop stop-color="#594BB9"/><stop offset="1" stop-color="#60A8F2"/></linearGradient><linearGradient id="paint2_linear_94_20591" x1="24.0879" x2="45" y1="40.4309" y2="45" gradientUnits="userSpaceOnUse"><stop stop-color="#61A2EF"/><stop offset="1" stop-color="#58E6FD"/></linearGradient><linearGradient id="paint3_linear_94_20591" x1="18.6401" x2="45" y1="5.98745" y2="3" gradientUnits="userSpaceOnUse"><stop stop-color="#534EBE"/><stop offset="1" stop-color="#6875E2"/></linearGradient><linearGradient id="paint4_linear_94_20591" x1="37.4434" x2="44.9998" y1="26.8116" y2="35.8618" gradientUnits="userSpaceOnUse"><stop stop-color="#71A5F3"/><stop offset="1" stop-color="#6CC3FA"/></linearGradient></defs></svg>

<svg xmlns="http://www.w3.org/2000/svg" fill="none" aria-hidden="true" viewBox="0 0 48 48"><path fill="url(#a)" d="M4.308 9.552C3 12.12 3 15.48 3 22.2v3.6c0 6.72 0 10.08 1.308 12.648a12 12 0 0 0 5.244 5.244C12.12 45 15.48 45 22.2 45h3.6c6.72 0 10.08 0 12.648-1.308a12 12 0 0 0 5.244-5.244C45 35.88 45 32.52 45 25.8v-3.6c0-6.72 0-10.08-1.308-12.648a12 12 0 0 0-5.244-5.244C35.88 3 32.52 3 25.8 3h-3.6C15.48 3 12.12 3 9.552 4.308a12 12 0 0 0-5.244 5.244Z"/><path fill="url(#b)" d="M3.398 12.42C3 14.68 3 17.68 3 22.2v3.6c0 6.72 0 10.08 1.308 12.648a12 12 0 0 0 5.244 5.244C12.12 45 15.48 45 22.2 45h3.6c6.72 0 10.08 0 12.648-1.308a12 12 0 0 0 5.244-5.244C45 35.88 45 32.52 45 25.8v-3.6c0-6.72 0-10.081-1.308-12.648a12 12 0 0 0-5.01-5.122L3.398 12.42Z"/><path fill="url(#c)" d="M44.566 35.781c-.193 1.014-.472 1.878-.874 2.667a12 12 0 0 1-5.244 5.244c-2.49 1.269-5.727 1.307-12.054 1.308h-2.306v-4.745l20.477-4.474Z"/><path fill="url(#d)" d="M25.8 3h-3.6c-1.308 0-2.488 0-3.56.01v5.946l20.038-4.528-.23-.12c-1.425-.726-3.095-1.05-5.448-1.193C31.114 3 28.79 3 25.8 3Z"/><path fill="url(#e)" d="M45 26.06c0 4.508-.008 7.48-.434 9.721l-7.123 1.556V26.724L45 24.966v1.094Z"/><path fill="#fff" fill-rule="evenodd" d="M22.411 20.067c0-.964.788-1.335 2.094-1.335 1.872 0 4.236.569 6.108 1.582v-5.809c-2.044-.816-4.064-1.137-6.108-1.137-5 0-8.325 2.62-8.325 6.995 0 6.823 9.36 5.735 9.36 8.677 0 1.137-.986 1.507-2.365 1.507-2.044 0-4.655-.84-6.724-1.977v5.883a17.02 17.02 0 0 0 6.724 1.409c5.123 0 8.645-2.546 8.645-6.97-.024-7.367-9.409-6.057-9.409-8.825Z" clip-rule="evenodd"/><defs><linearGradient id="a" x1="3" x2="16.795" y1="3" y2="12.753" gradientUnits="userSpaceOnUse"><stop stop-color="#392993"/><stop offset="1" stop-color="#4B47B9"/></linearGradient><linearGradient id="b" x1="4.582" x2="35.035" y1="12.862" y2="37.981" gradientUnits="userSpaceOnUse"><stop stop-color="#594BB9"/><stop offset="1" stop-color="#60A8F2"/></linearGradient><linearGradient id="c" x1="24.088" x2="45" y1="40.431" y2="45" gradientUnits="userSpaceOnUse"><stop stop-color="#61A2EF"/><stop offset="1" stop-color="#58E6FD"/></linearGradient><linearGradient id="d" x1="18.64" x2="45" y1="5.987" y2="3" gradientUnits="userSpaceOnUse"><stop stop-color="#534EBE"/><stop offset="1" stop-color="#6875E2"/></linearGradient><linearGradient id="e" x1="37.444" x2="45" y1="26.812" y2="35.862" gradientUnits="userSpaceOnUse"><stop stop-color="#71A5F3"/><stop offset="1" stop-color="#6CC3FA"/></linearGradient></defs></svg>
